X:1
T:C Major Timothy Swan, 1801
T:Anonymous, before 1757          664. 6664.
T:Trinity
T:Treble-Tenor-Bass Transcribed from Swan's New England Harmony , 1801; Counter written by B. C. Johnston, 2017.
%%score [ 1 2 3 4 ]
L:1/8
Q:1/4=120
M:2/4
K:C
V:1 treble nm="Treble" snm="Tr."
V:2 treble nm="Counter" snm="C."
V:3 treble-8 nm="Tenor" snm="T."
V:4 bass nm="Bass" snm="B."
V:1
"^1. Come, thou almighty King,  Help  us    thy     name       to    sing,     Help    us       to          praise;     Fa – ther    all   –   glo –ri –ous,   O'er    all      vic – to –ri –ous,   Come" G2 | %1
 E2 C2 | E3 F | G4 | z2 c2 | cB AG | c3 c | d4 | z2 ce | ed d2 | c4 | z2 c2 | c2 dc | G3 G | G4 | %15
 z2 ed | c2 d2 | e3 e | e4 | z2 d2 | %20
"^1. and  reign  over  us,     Come   and  reign    o  – ver    us,   Come        and   reign   o  – ver  us,    An   –  cient       of             days." B2 G2 | %21
 e3 c | A2 A2 | d2 ec | G3 G | G2 c2 | dc BG | c3 c | c4 | z2 dG | A2 (3GAB | c4- | c2 |] %33
V:2
"^2. Je –sus, our Lord, a – rise,  Scat–ter    our    en     –     e  – mies,     And    make  them       fall;         Let  thine   al  – migh–ty     aid    On     sure  de–fense be made,   Our" c2 | %1
 G2 G2 | c3 B | c4 | z2 G2 | ED EG | A3 G | G4 | z2 c2 | BA (3BcB | G4 | z2 G2 | G2 Ac | B3 B | %14
 B4 | z2 AB | Ac B2 | c3 A | A4 | z2 (3BAB | %20
"^2. souls on thee be stayed,  Our  souls on  thee  be stayed,   Our      souls  on  thee  be  stayed,    Lord,   hear        our          call," F2 G2 | %21
 G3 G | A2 A2 | B2 cA | G3 A | G2 c2 | A2 BG | E3 F | G4 | z2 Gc | (3cBA (3GAG | G4- | G2 |] %33
V:3
"^3. Come thou incarnate word,  Gird  on  thy     migh  –   ty  sword,  Our    prayer  at    –   tend.     Come  and    thy    peo–ple  bless,   And  give  thy   word success,  Spi –" G2 | %1
 G2 G2 | G3 A/B/ | c4 | z2 e2 | ed cB | A3 c | G4 | z2 A2 | Ad (3BAB | c4 | z2 e2 | e2 fe | d3 d | %14
 d4 | z2 gf | e2 d2 | c3 c | c4 | z2 (3GAG | %20
"^3. –rit of ho – li – ness,  Spi   –    rit   of       ho  –  li  –  ness,   Spi   –  rit       of        ho – li –ness,  On     us           de      –     scend." E2 G2 | %21
 c3 c | c2 (3dec | B2 c2 | d3 d | d2 (3cde | fe dc | e2 c2 | A4 | z2 G2 | (3cde d2 | c4- | c2 |] %33
V:4
"^5. To  the  great  one  in  three  E  –  ter – nal       prai    –    ses   be    Hence  ev  –  er     –    more!      His  sove–reign   ma – jes – ty    May    we    in      glo – ry  see,   And""^4. Come holy  com – for – ter,   Thy sa  –  cred   wit    –  ness  bear,   In        this      glad      hour!    Thou  who  Al  –  migh–ty   art,     De – scend  in    eve –ry heart,  And" C,2 | %1
 C,2 C,2 | C,3 G,, | C,4 | z2 C,2 | C,D, E,2 | F,>E, D,C, | G,4 | z2 F,E, | D,2 G,2 | C,4 | %11
 z2 C,2 | C,E, G,A, | G,3 G, | G,4 | z2 CB, | A,C G,2 | C3 B, | A,4 | z2 G,2 | %20
"^___________________________________\nEdited by B. C. Johnston, 2017\n   1. Top and middle staffs exchanged.\n   2. Half notes and rests at the end of each line, except  between the repetitions of the third line.\n   3. Counter part written.""^5. to  e  –  ter – ni – ty,   And         to    e    –   ter – ni  –  ty,    And         to       e    –    ter – ni  – ty   Love   and         a        –       dore!""^4. ne'er from us depart,  And     ne'er  from   us    de  –  part,   And    ne'er   from    us   de –part,  Spi – rit           of              power." G,2 G,,2 | %21
 C,3 C, | F,2 D,2 | G,2 C2 | G,3 G, | G,2 C,2 | D,E, G,2 | C2 C,2 | C,4 | z2 G,2 | A,F, G,2 | %31
 C,4- | C,2 |] %33

